icons/guarantees-5.svg

<svg width="86" height="86" viewBox="0 0 86 86" fill="none" xmlns="http://www.w3.org/2000/svg">
<path d="M20.8646 25.2917C20.1601 25.2917 19.4845 25.5715 18.9863 26.0697C18.4882 26.5678 18.2083 27.2434 18.2083 27.9479C18.2083 28.6524 18.4882 29.328 18.9863 29.8262C19.4845 30.3243 20.1601 30.6042 20.8646 30.6042H35.0313C35.7357 30.6042 36.4114 30.3243 36.9095 29.8262C37.4076 29.328 37.6875 28.6524 37.6875 27.9479C37.6875 27.2434 37.4076 26.5678 36.9095 26.0697C36.4114 25.5715 35.7357 25.2917 35.0313 25.2917H20.8646Z" fill="#141414"/>
<path fill-rule="evenodd" clip-rule="evenodd" d="M75.5408 28.8475C75.3189 28.8357 75.0828 28.831 74.8325 28.8333H65.0115C56.9683 28.8333 50.0833 34.9817 50.0833 43C50.0833 51.0183 56.9683 57.1667 65.0115 57.1667H74.8325C75.0828 57.169 75.3189 57.1643 75.5408 57.1525C78.8098 56.9542 81.6998 54.4715 81.9442 51.0006C81.9583 50.774 81.9583 50.5296 81.9583 50.3029V35.6971C81.9583 35.4704 81.9583 35.226 81.9442 34.9994C81.6998 31.5285 78.8098 29.0494 75.5408 28.8475ZM64.1473 46.779C66.2156 46.779 67.8944 45.086 67.8944 43C67.8944 40.9104 66.2156 39.221 64.1473 39.221C62.079 39.221 60.3931 40.914 60.3931 43C60.3931 45.0896 62.0754 46.779 64.1473 46.779Z" fill="#141414"/>
<path opacity="0.5" d="M75.3708 28.8404C75.3708 24.6577 75.215 20.1704 72.5446 16.9581C72.2827 16.6441 72.0074 16.3416 71.7194 16.0515C69.0667 13.4023 65.7056 12.2265 61.5548 11.6669C57.5173 11.125 52.3642 11.125 45.8546 11.125H38.3746C31.865 11.125 26.7083 11.125 22.6708 11.6669C18.52 12.2265 15.159 13.4023 12.5063 16.0515C9.85709 18.7042 8.68125 22.0652 8.12167 26.216C7.58334 30.2535 7.58334 35.4067 7.58334 41.9163V42.3129C7.58334 48.8225 7.58334 53.9792 8.12521 58.0131C8.68479 62.164 9.86063 65.525 12.5098 68.1777C15.1625 70.8269 18.5235 72.0027 22.6744 72.5623C26.7119 73.1042 31.865 73.1042 38.3746 73.1042H45.8546C52.3642 73.1042 57.5208 73.1042 61.5548 72.5623C65.7056 72.0027 69.0667 70.8269 71.7194 68.1777C72.4395 67.4505 73.0605 66.6713 73.5823 65.8402C75.176 63.2902 75.3673 60.1665 75.3673 57.1631L74.836 57.1667H65.0115C56.9683 57.1667 50.0833 51.0183 50.0833 43C50.0833 34.9817 56.9683 28.8333 65.0115 28.8333H74.8325C75.019 28.8333 75.2008 28.8357 75.3708 28.8404Z" fill="#141414"/>
</svg>

<svg xmlns="http://www.w3.org/2000/svg" width="86" height="86" fill="none"><path fill="#141414" d="M20.865 25.292a2.656 2.656 0 1 0 0 5.312H35.03a2.656 2.656 0 0 0 0-5.312z"/><path fill="#141414" fill-rule="evenodd" d="M75.54 28.848a11 11 0 0 0-.708-.015h-9.82c-8.044 0-14.929 6.149-14.929 14.167s6.885 14.167 14.929 14.167h9.82q.376.003.709-.014c3.269-.199 6.159-2.681 6.403-6.152.014-.227.014-.471.014-.698V35.697c0-.227 0-.471-.014-.698-.244-3.47-3.134-5.95-6.403-6.152M64.148 46.779c2.069 0 3.747-1.693 3.747-3.779 0-2.09-1.678-3.779-3.747-3.779S60.393 40.914 60.393 43c0 2.09 1.682 3.779 3.754 3.779" clip-rule="evenodd"/><path fill="#141414" d="M75.37 28.84c0-4.182-.155-8.67-2.825-11.882a14 14 0 0 0-.826-.906c-2.652-2.65-6.013-3.825-10.164-4.385-4.038-.542-9.19-.542-15.7-.542h-7.48c-6.51 0-11.667 0-15.704.542-4.151.56-7.512 1.735-10.165 4.385-2.649 2.652-3.825 6.013-4.384 10.164-.539 4.037-.539 9.19-.539 15.7v.397c0 6.51 0 11.666.542 15.7.56 4.151 1.736 7.512 4.385 10.165 2.653 2.649 6.013 3.825 10.164 4.384 4.038.542 9.191.542 15.7.542h7.48c6.51 0 11.667 0 15.7-.542 4.152-.56 7.513-1.735 10.165-4.384a13.6 13.6 0 0 0 1.863-2.338c1.594-2.55 1.785-5.674 1.785-8.677l-.531.004h-9.824c-8.044 0-14.929-6.149-14.929-14.167s6.885-14.167 14.929-14.167h9.82q.282 0 .539.007" opacity=".5"/></svg>
